public/image/copy.svg

<svg height="512" viewBox="0 0 64 64" width="512" xmlns="http://www.w3.org/2000/svg"><g id="_18_Backup" data-name="18 Backup"><path d="m50.689 3h-5.689v16h-26v-16h-16v58h8v-24h42v24h8v-47.689z" fill="#4370ff"/><path d="m17 51h30v4h-30z"/><path d="m17 43h30v4h-30z"/><path d="m51.517 1h-26.517v4h18v12h-22v-16h-20v62h4v-58h12v16h30v-16h2.86l9.14 9.14v44.86h-4v-24h-46v28h38v-4h-34v-20h38v24h12v-50.517z"/></g></svg>

<svg height="512" viewBox="0 0 64 64" width="512" xmlns="http://www.w3.org/2000/svg"><g id="_18_Backup" data-name="18 Backup"><path d="M50.689 3H45v16H19V3H3v58h8V37h42v24h8V13.311z" fill="#4370ff"/><path d="M17 51h30v4H17zm0-8h30v4H17z"/><path d="M51.517 1H25v4h18v12H21V1H1v62h4V5h12v16h30V5h2.86L59 14.14V59h-4V35H9v28h38v-4H13V39h38v24h12V12.483z"/></g></svg>
